svg/u1f9ea.svg

<svg viewBox="0 0 128 128" xmlns="http://www.w3.org/2000/svg">
  <g>
    <g>
      <circle cx="109.77" cy="11.02" r="4.66" fill="#00EDCD"/>
      <path d="M11.43,91.09l72.66-72.66c0.11-0.11,0.21-0.28,0.31-0.45 c0.77-1.32,0.85-2.58,0.73-4.25c-0.21-2.83,0.46-4.36,1.83-5.38c1.81-1.36,8.08-1.08,19.81,10.65s12,17.99,10.64,19.8 c-1.02,1.37-2.55,2.03-5.38,1.83c-1.67-0.12-2.93-0.05-4.25,0.73c-0.18,0.1-0.34,0.2-0.45,0.31l-72.66,72.66 c-9.98,9.98-19.51,8.46-25.56,2.41c-0.01-0.01-0.03-0.03-0.04-0.04c-0.01-0.01-0.03-0.03-0.04-0.04 C2.96,110.6,1.44,101.07,11.43,91.09z" opacity="0.75" fill="#81D4FA"/>
      <path d="M99.79,23.22c-6.36-6.36-11.2-9.55-14.69-10.98c-0.02,0.45-0.02,0.95,0.02,1.49 c0.09,1.19,0.06,2.17-0.23,3.11c3.17,1.71,7.14,4.55,12.01,9.11c7,6.56,10.34,11.51,11.73,15c0.92-0.34,1.86-0.4,2.98-0.35 C110.94,37.1,107.99,31.41,99.79,23.22z" opacity="0.39" fill="#1D44B3"/>
      <path d="M54.15,48.51L11.67,90.94c-10.36,10.35-9.05,20.03-3.03,26.05c6.02,6.01,15.68,7.35,26.06-3.03 L102,47.04L54.15,48.51z" fill="#00BFA5"/>
      <circle cx="45.06" cy="76.96" r="5.06" fill="#00937A"/>
      <circle cx="96.58" cy="37.04" r="4.76" fill="#00BFA5"/>
      <circle cx="73.27" cy="57.3" r="2.93" opacity="0.69" fill="#FFFFFF" enable-background="new "/>
      <circle cx="121.84" cy="12.01" r="2.17" fill="#00BFA5"/>
      <circle cx="59.15" cy="72.54" r="4" fill="#00EDCD"/>
      <circle cx="63.75" cy="61.12" r="1.54" fill="#00EDCD"/>
    </g>
    <path d=" M93.2,14.66c3.21,2.08,6.13,4.6,8.65,7.46" opacity="0.6" fill="none" stroke="#FFFFFF" stroke-width="4.1949" stroke-linecap="round" stroke-miterlimit="10"/>
    <path d="M102.02,46.96c-0.84,0.74-3.57,1.23-10.75,2.35c-3.81,0.6-8.47,1.2-13.82,1.64 c-16.77,1.39-28.08-0.9-21.37-3.64c5.39-2.2,24.53-1.72,36.51-1.34C98.37,46.16,102.68,46.39,102.02,46.96z" fill="#00EDCD"/>
    <g opacity="0.6">
      <path d="M11.63,103.5c-1.72-0.71-1.02-2.68,0-3.71l67.5-69.29c4.1-4.24,7.85-7.12,9.95-5.12 c2.35,2.23,1.6,6.23-7.61,14.49l-64.68,61.17C16.28,101.55,13.35,104.21,11.63,103.5z" fill="#FFFFFF"/>
    </g>
  </g>
</svg>

<svg viewBox="0 0 128 128" xmlns="http://www.w3.org/2000/svg">
  <defs/>
  <path d="M114.43,11.02 A4.66 4.66 0 1 1 105.11,11.02 A4.66 4.66 0 1 1 114.43,11.02 Z" fill="#00EDCD"/>
  <path d="M11.43,91.09 L84.09,18.43 C84.2,18.32 84.3,18.15 84.4,17.98 C85.17,16.66 85.25,15.4 85.13,13.73 C84.92,10.9 85.59,9.37 86.96,8.35 C88.77,6.99 95.04,7.27 106.77,19 C118.5,30.73 118.77,36.99 117.41,38.8 C116.39,40.17 114.86,40.83 112.03,40.63 C110.36,40.51 109.1,40.58 107.78,41.36 C107.6,41.46 107.44,41.56 107.33,41.67 L34.67,114.33 C24.69,124.31 15.16,122.79 9.11,116.74 C9.1,116.73 9.08,116.71 9.07,116.7 C9.06,116.69 9.04,116.67 9.03,116.66 C2.96,110.6 1.44,101.07 11.43,91.09 Z" fill="#81D4FA" opacity="0.75"/>
  <path d="M99.79,23.22 C93.43,16.86 88.59,13.67 85.1,12.24 C85.08,12.69 85.08,13.19 85.12,13.73 C85.21,14.92 85.18,15.9 84.89,16.84 C88.06,18.55 92.03,21.39 96.9,25.95 C103.9,32.51 107.24,37.46 108.63,40.95 C109.55,40.61 110.49,40.55 111.61,40.6 C110.94,37.1 107.99,31.41 99.79,23.22 Z" fill="#1D44B3" opacity="0.39"/>
  <path d="M54.15,48.51 L11.67,90.94 C1.31,101.29 2.62,110.97 8.64,116.99 C14.66,123 24.32,124.34 34.7,113.96 L102,47.04 L54.15,48.51 Z" fill="#00BFA5"/>
  <path d="M50.12,76.96 A5.06 5.06 0 1 1 40,76.96 A5.06 5.06 0 1 1 50.12,76.96 Z" fill="#00937A"/>
  <path d="M101.34,37.04 A4.76 4.76 0 1 1 91.82,37.04 A4.76 4.76 0 1 1 101.34,37.04 Z" fill="#00BFA5"/>
  <path d="M76.2,57.3 A2.93 2.93 0 1 1 70.34,57.3 A2.93 2.93 0 1 1 76.2,57.3 Z" fill="#FFFFFF" opacity="0.69"/>
  <path d="M124.01,12.01 A2.17 2.17 0 1 1 119.67,12.01 A2.17 2.17 0 1 1 124.01,12.01 Z" fill="#00BFA5"/>
  <path d="M63.15,72.54 A4 4 0 1 1 55.15,72.54 A4 4 0 1 1 63.15,72.54 Z" fill="#00EDCD"/>
  <path d="M65.29,61.12 A1.54 1.54 0 1 1 62.21,61.12 A1.54 1.54 0 1 1 65.29,61.12 Z" fill="#00EDCD"/>
  <path d="M94.341,12.9 Q99.423,16.193 103.424,20.733 Q104.117,21.52 104.07,22.26 Q104.023,23 103.237,23.694 Q101.663,25.08 100.276,23.507 Q96.658,19.4 92.059,16.42 Q91.179,15.85 91.024,15.125 Q90.869,14.4 91.44,13.519 Q92.58,11.759 94.341,12.9 Z" fill="#FFFFFF" opacity="0.6"/>
  <path d="M102.02,46.96 C101.18,47.7 98.45,48.19 91.27,49.31 C87.46,49.91 82.8,50.51 77.45,50.95 C60.68,52.34 49.37,50.05 56.08,47.31 C61.47,45.11 80.61,45.59 92.59,45.97 C98.37,46.16 102.68,46.39 102.02,46.96 Z" fill="#00EDCD"/>
  <path d="M11.63,103.5 C9.91,102.79 10.61,100.82 11.63,99.79 L79.13,30.5 C83.23,26.26 86.98,23.38 89.08,25.38 C91.43,27.61 90.68,31.61 81.47,39.87 L16.79,101.04 C16.28,101.55 13.35,104.21 11.63,103.5 Z" fill="#FFFFFF" opacity="0.6"/>
</svg>
